images/29670.svg

<?xml version="1.0" encoding="UTF-8"?>
<svg xmlns="http://www.w3.org/2000/svg" xmlns:xlink="http://www.w3.org/1999/xlink" width="300pt" height="300pt" viewBox="0 0 300 300" version="1.1">
<defs>
<g>
<symbol overflow="visible" id="glyph0-0">
<path style="stroke:none;" d="M 0.453125 1.59375 L 0.453125 -6.34375 L 4.953125 -6.34375 L 4.953125 1.59375 Z M 0.953125 1.09375 L 4.453125 1.09375 L 4.453125 -5.84375 L 0.953125 -5.84375 Z M 0.953125 1.09375 "/>
</symbol>
<symbol overflow="visible" id="glyph0-1">
<path style="stroke:none;" d="M 0.890625 -6.5625 L 4.65625 -6.5625 L 4.65625 -5.8125 L 1.765625 -5.8125 L 1.765625 -3.875 L 4.375 -3.875 L 4.375 -3.140625 L 1.765625 -3.140625 L 1.765625 0 L 0.890625 0 Z M 0.890625 -6.5625 "/>
</symbol>
<symbol overflow="visible" id="glyph0-2">
<path style="stroke:none;" d="M 0.890625 -6.5625 L 2.078125 -6.5625 L 4.984375 -1.078125 L 4.984375 -6.5625 L 5.84375 -6.5625 L 5.84375 0 L 4.65625 0 L 1.75 -5.484375 L 1.75 0 L 0.890625 0 Z M 0.890625 -6.5625 "/>
</symbol>
<symbol overflow="visible" id="glyph0-3">
<path style="stroke:none;" d="M 3.546875 -5.953125 C 2.898438 -5.953125 2.382812 -5.710938 2 -5.234375 C 1.625 -4.753906 1.4375 -4.101562 1.4375 -3.28125 C 1.4375 -2.445312 1.625 -1.789062 2 -1.3125 C 2.382812 -0.832031 2.898438 -0.59375 3.546875 -0.59375 C 4.191406 -0.59375 4.703125 -0.832031 5.078125 -1.3125 C 5.453125 -1.789062 5.640625 -2.445312 5.640625 -3.28125 C 5.640625 -4.101562 5.453125 -4.753906 5.078125 -5.234375 C 4.703125 -5.710938 4.191406 -5.953125 3.546875 -5.953125 Z M 3.546875 -6.6875 C 4.460938 -6.6875 5.195312 -6.375 5.75 -5.75 C 6.300781 -5.132812 6.578125 -4.3125 6.578125 -3.28125 C 6.578125 -2.238281 6.300781 -1.410156 5.75 -0.796875 C 5.195312 -0.179688 4.460938 0.125 3.546875 0.125 C 2.617188 0.125 1.878906 -0.179688 1.328125 -0.796875 C 0.773438 -1.410156 0.5 -2.238281 0.5 -3.28125 C 0.5 -4.3125 0.773438 -5.132812 1.328125 -5.75 C 1.878906 -6.375 2.617188 -6.6875 3.546875 -6.6875 Z M 3.546875 -6.6875 "/>
</symbol>
</g>
</defs>
<g id="surface26609">
<rect x="0" y="0" width="300" height="300" style="fill:rgb(100%,100%,100%);fill-opacity:1;stroke:none;"/>
<path style="fill:none;stroke-width:1.2;stroke-linecap:butt;stroke-linejoin:miter;stroke:rgb(20%,80%,80%);stroke-opacity:1;stroke-miterlimit:10;" d="M 264.75 107.792969 L 255.820312 116.511719 "/>
<path style="fill:none;stroke-width:1.2;stroke-linecap:butt;stroke-linejoin:miter;stroke:rgb(0%,0%,0%);stroke-opacity:1;stroke-miterlimit:10;" d="M 255.820312 116.511719 L 246.890625 125.234375 "/>
<path style=" stroke:none;fill-rule:nonzero;fill:rgb(100%,100%,100%);fill-opacity:1;" d="M 261.75 102.292969 L 267.75 102.292969 L 267.75 113.292969 L 261.75 113.292969 Z M 261.75 102.292969 "/>
<g style="fill:rgb(20%,80%,80%);fill-opacity:1;">
  <use xlink:href="#glyph0-1" x="261.75" y="110.956055"/>
</g>
<path style="fill:none;stroke-width:1.2;stroke-linecap:butt;stroke-linejoin:miter;stroke:rgb(0%,0%,0%);stroke-opacity:1;stroke-miterlimit:10;" d="M 246.890625 125.234375 L 253.070312 149.421875 "/>
<path style="fill:none;stroke-width:1.2;stroke-linecap:butt;stroke-linejoin:miter;stroke:rgb(0%,0%,0%);stroke-opacity:1;stroke-miterlimit:10;" d="M 241.816406 129.109375 L 246.761719 148.457031 "/>
<path style="fill:none;stroke-width:1.2;stroke-linecap:butt;stroke-linejoin:miter;stroke:rgb(0%,0%,0%);stroke-opacity:1;stroke-miterlimit:10;" d="M 222.855469 118.492188 L 246.890625 125.234375 "/>
<path style="fill:none;stroke-width:1.2;stroke-linecap:butt;stroke-linejoin:miter;stroke:rgb(0%,0%,0%);stroke-opacity:1;stroke-miterlimit:10;" d="M 253.070312 149.421875 L 235.210938 166.867188 "/>
<path style="fill:none;stroke-width:1.2;stroke-linecap:butt;stroke-linejoin:miter;stroke:rgb(0%,0%,0%);stroke-opacity:1;stroke-miterlimit:10;" d="M 235.210938 166.867188 L 211.175781 160.121094 "/>
<path style="fill:none;stroke-width:1.2;stroke-linecap:butt;stroke-linejoin:miter;stroke:rgb(0%,0%,0%);stroke-opacity:1;stroke-miterlimit:10;" d="M 234.394531 160.535156 L 215.164062 155.140625 "/>
<path style="fill:none;stroke-width:1.2;stroke-linecap:butt;stroke-linejoin:miter;stroke:rgb(0%,0%,0%);stroke-opacity:1;stroke-miterlimit:10;" d="M 211.175781 160.121094 L 204.996094 135.933594 "/>
<path style="fill:none;stroke-width:1.2;stroke-linecap:butt;stroke-linejoin:miter;stroke:rgb(0%,0%,0%);stroke-opacity:1;stroke-miterlimit:10;" d="M 211.175781 160.121094 L 193.316406 177.566406 "/>
<path style="fill:none;stroke-width:1.2;stroke-linecap:butt;stroke-linejoin:miter;stroke:rgb(0%,0%,0%);stroke-opacity:1;stroke-miterlimit:10;" d="M 204.996094 135.933594 L 222.855469 118.492188 "/>
<path style="fill:none;stroke-width:1.2;stroke-linecap:butt;stroke-linejoin:miter;stroke:rgb(0%,0%,0%);stroke-opacity:1;stroke-miterlimit:10;" d="M 210.886719 138.390625 L 225.175781 124.4375 "/>
<path style="fill:none;stroke-width:1.2;stroke-linecap:butt;stroke-linejoin:miter;stroke:rgb(0%,0%,0%);stroke-opacity:1;stroke-miterlimit:10;" d="M 193.316406 177.566406 L 195.125 189.914062 "/>
<path style="fill:none;stroke-width:1.2;stroke-linecap:butt;stroke-linejoin:miter;stroke:rgb(0%,0%,100%);stroke-opacity:1;stroke-miterlimit:10;" d="M 195.125 189.914062 L 196.929688 202.265625 "/>
<path style="fill:none;stroke-width:1.2;stroke-linecap:butt;stroke-linejoin:miter;stroke:rgb(0%,0%,0%);stroke-opacity:1;stroke-miterlimit:10;" d="M 168.707031 173.371094 L 193.316406 177.566406 "/>
<path style="fill:none;stroke-width:1.2;stroke-linecap:butt;stroke-linejoin:miter;stroke:rgb(0%,0%,0%);stroke-opacity:1;stroke-miterlimit:10;" d="M 170.179688 179.582031 L 189.867188 182.9375 "/>
<path style="fill:none;stroke-width:1.2;stroke-linecap:butt;stroke-linejoin:miter;stroke:rgb(0%,0%,100%);stroke-opacity:1;stroke-miterlimit:10;" d="M 196.929688 202.265625 L 185.742188 207.800781 "/>
<path style="fill:none;stroke-width:1.2;stroke-linecap:butt;stroke-linejoin:miter;stroke:rgb(0%,0%,0%);stroke-opacity:1;stroke-miterlimit:10;" d="M 185.742188 207.800781 L 174.554688 213.335938 "/>
<path style="fill:none;stroke-width:1.2;stroke-linecap:butt;stroke-linejoin:miter;stroke:rgb(0%,0%,100%);stroke-opacity:1;stroke-miterlimit:10;" d="M 192.089844 198.109375 L 183.140625 202.539062 "/>
<path style="fill:none;stroke-width:1.2;stroke-linecap:butt;stroke-linejoin:miter;stroke:rgb(0%,0%,0%);stroke-opacity:1;stroke-miterlimit:10;" d="M 183.140625 202.539062 L 174.1875 206.964844 "/>
<path style=" stroke:none;fill-rule:nonzero;fill:rgb(100%,100%,100%);fill-opacity:1;" d="M 193.929688 196.765625 L 200.929688 196.765625 L 200.929688 207.765625 L 193.929688 207.765625 Z M 193.929688 196.765625 "/>
<g style="fill:rgb(0%,0%,100%);fill-opacity:1;">
  <use xlink:href="#glyph0-2" x="193.929688" y="205.428711"/>
</g>
<path style="fill:none;stroke-width:1.2;stroke-linecap:butt;stroke-linejoin:miter;stroke:rgb(0%,0%,0%);stroke-opacity:1;stroke-miterlimit:10;" d="M 174.554688 213.335938 L 165.835938 204.40625 "/>
<path style="fill:none;stroke-width:1.2;stroke-linecap:butt;stroke-linejoin:miter;stroke:rgb(100%,0%,0%);stroke-opacity:1;stroke-miterlimit:10;" d="M 165.835938 204.40625 L 157.113281 195.480469 "/>
<path style="fill:none;stroke-width:1.2;stroke-linecap:butt;stroke-linejoin:miter;stroke:rgb(100%,0%,0%);stroke-opacity:1;stroke-miterlimit:10;" d="M 157.113281 195.480469 L 162.910156 184.425781 "/>
<path style="fill:none;stroke-width:1.2;stroke-linecap:butt;stroke-linejoin:miter;stroke:rgb(0%,0%,0%);stroke-opacity:1;stroke-miterlimit:10;" d="M 162.910156 184.425781 L 168.707031 173.371094 "/>
<path style=" stroke:none;fill-rule:nonzero;fill:rgb(100%,100%,100%);fill-opacity:1;" d="M 153.113281 189.980469 L 161.113281 189.980469 L 161.113281 200.980469 L 153.113281 200.980469 Z M 153.113281 189.980469 "/>
<g style="fill:rgb(100%,0%,0%);fill-opacity:1;">
  <use xlink:href="#glyph0-3" x="153.113281" y="198.643555"/>
</g>
<path style="fill:none;stroke-width:1.2;stroke-linecap:butt;stroke-linejoin:miter;stroke:rgb(0%,0%,0%);stroke-opacity:1;stroke-miterlimit:10;" d="M 168.707031 173.371094 L 157.636719 150.996094 "/>
<path style="fill:none;stroke-width:1.2;stroke-linecap:butt;stroke-linejoin:miter;stroke:rgb(0%,0%,0%);stroke-opacity:1;stroke-miterlimit:10;" d="M 157.636719 150.996094 L 171.476562 130.222656 "/>
<path style="fill:none;stroke-width:1.2;stroke-linecap:butt;stroke-linejoin:miter;stroke:rgb(0%,0%,0%);stroke-opacity:1;stroke-miterlimit:10;" d="M 157.636719 150.996094 L 132.722656 149.398438 "/>
<path style="fill:none;stroke-width:1.2;stroke-linecap:butt;stroke-linejoin:miter;stroke:rgb(0%,0%,0%);stroke-opacity:1;stroke-miterlimit:10;" d="M 155.519531 144.972656 L 135.589844 143.695312 "/>
<path style="fill:none;stroke-width:1.2;stroke-linecap:butt;stroke-linejoin:miter;stroke:rgb(0%,0%,0%);stroke-opacity:1;stroke-miterlimit:10;" d="M 171.476562 130.222656 L 160.40625 107.847656 "/>
<path style="fill:none;stroke-width:1.2;stroke-linecap:butt;stroke-linejoin:miter;stroke:rgb(0%,0%,0%);stroke-opacity:1;stroke-miterlimit:10;" d="M 165.105469 130.589844 L 156.25 112.6875 "/>
<path style="fill:none;stroke-width:1.2;stroke-linecap:butt;stroke-linejoin:miter;stroke:rgb(0%,0%,0%);stroke-opacity:1;stroke-miterlimit:10;" d="M 160.40625 107.847656 L 135.492188 106.246094 "/>
<path style="fill:none;stroke-width:1.2;stroke-linecap:butt;stroke-linejoin:miter;stroke:rgb(0%,0%,0%);stroke-opacity:1;stroke-miterlimit:10;" d="M 135.492188 106.246094 L 128.574219 116.632812 "/>
<path style="fill:none;stroke-width:1.2;stroke-linecap:butt;stroke-linejoin:miter;stroke:rgb(0%,0%,100%);stroke-opacity:1;stroke-miterlimit:10;" d="M 128.574219 116.632812 L 121.652344 127.023438 "/>
<path style="fill:none;stroke-width:1.2;stroke-linecap:butt;stroke-linejoin:miter;stroke:rgb(0%,0%,100%);stroke-opacity:1;stroke-miterlimit:10;" d="M 120.011719 86.664062 L 127.753906 96.453125 "/>
<path style="fill:none;stroke-width:1.2;stroke-linecap:butt;stroke-linejoin:miter;stroke:rgb(0%,0%,0%);stroke-opacity:1;stroke-miterlimit:10;" d="M 127.753906 96.453125 L 135.492188 106.246094 "/>
<path style="fill:none;stroke-width:1.2;stroke-linecap:butt;stroke-linejoin:miter;stroke:rgb(0%,0%,100%);stroke-opacity:1;stroke-miterlimit:10;" d="M 116.953125 92.265625 L 123.144531 100.097656 "/>
<path style="fill:none;stroke-width:1.2;stroke-linecap:butt;stroke-linejoin:miter;stroke:rgb(0%,0%,0%);stroke-opacity:1;stroke-miterlimit:10;" d="M 123.144531 100.097656 L 129.339844 107.929688 "/>
<path style="fill:none;stroke-width:1.2;stroke-linecap:butt;stroke-linejoin:miter;stroke:rgb(0%,0%,100%);stroke-opacity:1;stroke-miterlimit:10;" d="M 121.652344 127.023438 L 127.1875 138.210938 "/>
<path style="fill:none;stroke-width:1.2;stroke-linecap:butt;stroke-linejoin:miter;stroke:rgb(0%,0%,0%);stroke-opacity:1;stroke-miterlimit:10;" d="M 127.1875 138.210938 L 132.722656 149.398438 "/>
<path style="fill:none;stroke-width:1.2;stroke-linecap:butt;stroke-linejoin:miter;stroke:rgb(0%,0%,100%);stroke-opacity:1;stroke-miterlimit:10;" d="M 121.652344 127.023438 L 109.632812 123.648438 "/>
<path style="fill:none;stroke-width:1.2;stroke-linecap:butt;stroke-linejoin:miter;stroke:rgb(0%,0%,0%);stroke-opacity:1;stroke-miterlimit:10;" d="M 109.632812 123.648438 L 97.617188 120.277344 "/>
<path style=" stroke:none;fill-rule:nonzero;fill:rgb(100%,100%,100%);fill-opacity:1;" d="M 118.652344 121.523438 L 125.652344 121.523438 L 125.652344 132.523438 L 118.652344 132.523438 Z M 118.652344 121.523438 "/>
<g style="fill:rgb(0%,0%,100%);fill-opacity:1;">
  <use xlink:href="#glyph0-2" x="118.652344" y="130.186523"/>
</g>
<path style="fill:none;stroke-width:1.2;stroke-linecap:butt;stroke-linejoin:miter;stroke:rgb(0%,0%,0%);stroke-opacity:1;stroke-miterlimit:10;" d="M 97.617188 120.277344 L 97.109375 107.804688 "/>
<path style="fill:none;stroke-width:1.2;stroke-linecap:butt;stroke-linejoin:miter;stroke:rgb(0%,0%,100%);stroke-opacity:1;stroke-miterlimit:10;" d="M 97.109375 107.804688 L 96.605469 95.335938 "/>
<path style="fill:none;stroke-width:1.2;stroke-linecap:butt;stroke-linejoin:miter;stroke:rgb(0%,0%,0%);stroke-opacity:1;stroke-miterlimit:10;" d="M 103.382812 117.542969 L 102.980469 107.566406 "/>
<path style="fill:none;stroke-width:1.2;stroke-linecap:butt;stroke-linejoin:miter;stroke:rgb(0%,0%,100%);stroke-opacity:1;stroke-miterlimit:10;" d="M 102.980469 107.566406 L 102.574219 97.589844 "/>
<path style="fill:none;stroke-width:1.2;stroke-linecap:butt;stroke-linejoin:miter;stroke:rgb(0%,0%,0%);stroke-opacity:1;stroke-miterlimit:10;" d="M 97.617188 120.277344 L 78.03125 135.757812 "/>
<path style="fill:none;stroke-width:1.2;stroke-linecap:butt;stroke-linejoin:miter;stroke:rgb(0%,0%,100%);stroke-opacity:1;stroke-miterlimit:10;" d="M 96.605469 95.335938 L 120.011719 86.664062 "/>
<path style=" stroke:none;fill-rule:nonzero;fill:rgb(100%,100%,100%);fill-opacity:1;" d="M 93.605469 89.835938 L 100.605469 89.835938 L 100.605469 100.835938 L 93.605469 100.835938 Z M 93.605469 89.835938 "/>
<g style="fill:rgb(0%,0%,100%);fill-opacity:1;">
  <use xlink:href="#glyph0-2" x="93.605469" y="98.499023"/>
</g>
<path style=" stroke:none;fill-rule:nonzero;fill:rgb(100%,100%,100%);fill-opacity:1;" d="M 117.011719 81.164062 L 124.011719 81.164062 L 124.011719 92.164062 L 117.011719 92.164062 Z M 117.011719 81.164062 "/>
<g style="fill:rgb(0%,0%,100%);fill-opacity:1;">
  <use xlink:href="#glyph0-2" x="117.011719" y="89.827148"/>
</g>
<path style="fill:none;stroke-width:1.2;stroke-linecap:butt;stroke-linejoin:miter;stroke:rgb(0%,0%,0%);stroke-opacity:1;stroke-miterlimit:10;" d="M 78.03125 135.757812 L 54.832031 126.539062 "/>
<path style="fill:none;stroke-width:1.2;stroke-linecap:butt;stroke-linejoin:miter;stroke:rgb(0%,0%,0%);stroke-opacity:1;stroke-miterlimit:10;" d="M 73.542969 140.296875 L 54.984375 132.917969 "/>
<path style="fill:none;stroke-width:1.2;stroke-linecap:butt;stroke-linejoin:miter;stroke:rgb(0%,0%,0%);stroke-opacity:1;stroke-miterlimit:10;" d="M 81.648438 160.460938 L 78.03125 135.757812 "/>
<path style="fill:none;stroke-width:1.2;stroke-linecap:butt;stroke-linejoin:miter;stroke:rgb(0%,0%,0%);stroke-opacity:1;stroke-miterlimit:10;" d="M 54.832031 126.539062 L 35.25 142.019531 "/>
<path style="fill:none;stroke-width:1.2;stroke-linecap:butt;stroke-linejoin:miter;stroke:rgb(0%,0%,0%);stroke-opacity:1;stroke-miterlimit:10;" d="M 35.25 142.019531 L 38.863281 166.722656 "/>
<path style="fill:none;stroke-width:1.2;stroke-linecap:butt;stroke-linejoin:miter;stroke:rgb(0%,0%,0%);stroke-opacity:1;stroke-miterlimit:10;" d="M 41.421875 143.640625 L 44.316406 163.398438 "/>
<path style="fill:none;stroke-width:1.2;stroke-linecap:butt;stroke-linejoin:miter;stroke:rgb(0%,0%,0%);stroke-opacity:1;stroke-miterlimit:10;" d="M 38.863281 166.722656 L 62.0625 175.941406 "/>
<path style="fill:none;stroke-width:1.2;stroke-linecap:butt;stroke-linejoin:miter;stroke:rgb(0%,0%,0%);stroke-opacity:1;stroke-miterlimit:10;" d="M 62.0625 175.941406 L 81.648438 160.460938 "/>
<path style="fill:none;stroke-width:1.2;stroke-linecap:butt;stroke-linejoin:miter;stroke:rgb(0%,0%,0%);stroke-opacity:1;stroke-miterlimit:10;" d="M 60.378906 169.785156 L 76.046875 157.398438 "/>
<path style="fill:none;stroke-width:1.2;stroke-linecap:butt;stroke-linejoin:miter;stroke:rgb(0%,0%,0%);stroke-opacity:1;stroke-miterlimit:10;" d="M 81.648438 160.460938 L 93.246094 165.070312 "/>
<path style="fill:none;stroke-width:1.2;stroke-linecap:butt;stroke-linejoin:miter;stroke:rgb(100%,0%,0%);stroke-opacity:1;stroke-miterlimit:10;" d="M 93.246094 165.070312 L 104.847656 169.679688 "/>
<path style="fill:none;stroke-width:1.2;stroke-linecap:butt;stroke-linejoin:miter;stroke:rgb(100%,0%,0%);stroke-opacity:1;stroke-miterlimit:10;" d="M 104.847656 169.679688 L 106.65625 182.03125 "/>
<path style="fill:none;stroke-width:1.2;stroke-linecap:butt;stroke-linejoin:miter;stroke:rgb(0%,0%,0%);stroke-opacity:1;stroke-miterlimit:10;" d="M 106.65625 182.03125 L 108.460938 194.378906 "/>
<path style=" stroke:none;fill-rule:nonzero;fill:rgb(100%,100%,100%);fill-opacity:1;" d="M 100.847656 164.179688 L 108.847656 164.179688 L 108.847656 175.179688 L 100.847656 175.179688 Z M 100.847656 164.179688 "/>
<g style="fill:rgb(100%,0%,0%);fill-opacity:1;">
  <use xlink:href="#glyph0-3" x="100.847656" y="172.842773"/>
</g>
<path style="fill:none;stroke-width:1.2;stroke-linecap:butt;stroke-linejoin:miter;stroke:rgb(0%,0%,0%);stroke-opacity:1;stroke-miterlimit:10;" d="M 108.460938 194.378906 L 131.660156 203.597656 "/>
</g>
</svg>

<svg xmlns="http://www.w3.org/2000/svg" xmlns:xlink="http://www.w3.org/1999/xlink" width="300pt" height="300pt" viewBox="0 0 300 300"><defs><symbol overflow="visible"><path d="M.453 1.594v-7.938h4.5v7.938zm.5-.5h3.5v-6.938h-3.5zm0 0"/></symbol><symbol overflow="visible" id="a"><path d="M.89-6.563h3.766v.75h-2.89v1.938h2.61v.734h-2.61V0H.89zm0 0"/></symbol><symbol overflow="visible" id="b"><path d="M.89-6.563H2.08l2.906 5.485v-5.484h.86V0H4.656L1.75-5.484V0H.89zm0 0"/></symbol><symbol overflow="visible" id="c"><path d="M3.547-5.953c-.65 0-1.164.242-1.547.72-.375.48-.563 1.13-.563 1.952 0 .835.188 1.49.563 1.967.383.48.898.72 1.547.72.644 0 1.156-.24 1.53-.72.376-.476.564-1.132.564-1.968 0-.822-.187-1.474-.562-1.954-.375-.477-.887-.72-1.53-.72zm0-.734c.914 0 1.648.312 2.203.937.55.617.828 1.438.828 2.47 0 1.042-.277 1.87-.828 2.483-.555.617-1.29.922-2.203.922-.93 0-1.668-.305-2.22-.922C.774-1.41.5-2.237.5-3.28c0-1.033.273-1.853.828-2.47.55-.625 1.29-.938 2.22-.938zm0 0"/></symbol></defs><g><path fill="#fff" d="M0 0h300v300H0z"/><path d="M264.75 107.793l-8.93 8.72" stroke-width="1.2" stroke="#3cc" stroke-miterlimit="10" fill="none"/><path d="M255.82 116.512l-8.93 8.722" stroke-width="1.2" stroke="#000" stroke-miterlimit="10" fill="none"/><path d="M261.75 102.293h6v11h-6zm0 0" fill="#fff"/><use xlink:href="#a" x="261.75" y="110.956" fill="#3cc"/><path d="M246.89 125.234l6.18 24.188M241.816 129.11l4.946 19.347M222.855 118.492l24.036 6.742M253.07 149.422l-17.86 17.445M235.21 166.867l-24.034-6.746M234.395 160.535l-19.23-5.394M211.176 160.12l-6.18-24.186M211.176 160.12l-17.86 17.446M204.996 135.934l17.86-17.442M210.887 138.39l14.29-13.952M193.316 177.566l1.81 12.348" stroke-width="1.2" stroke="#000" stroke-miterlimit="10" fill="none"/><path d="M195.125 189.914l1.805 12.352" stroke-width="1.2" stroke="#00f" stroke-miterlimit="10" fill="none"/><path d="M168.707 173.37l24.61 4.196M170.18 179.582l19.687 3.356" stroke-width="1.2" stroke="#000" stroke-miterlimit="10" fill="none"/><path d="M196.93 202.266l-11.188 5.535" stroke-width="1.2" stroke="#00f" stroke-miterlimit="10" fill="none"/><path d="M185.742 207.8l-11.187 5.536" stroke-width="1.2" stroke="#000" stroke-miterlimit="10" fill="none"/><path d="M192.09 198.11l-8.95 4.43" stroke-width="1.2" stroke="#00f" stroke-miterlimit="10" fill="none"/><path d="M183.14 202.54l-8.952 4.425" stroke-width="1.2" stroke="#000" stroke-miterlimit="10" fill="none"/><path d="M193.93 196.766h7v11h-7zm0 0" fill="#fff"/><use xlink:href="#b" x="193.93" y="205.429" fill="#00f"/><path d="M174.555 213.336l-8.72-8.93" stroke-width="1.2" stroke="#000" stroke-miterlimit="10" fill="none"/><path d="M165.836 204.406l-8.723-8.926M157.113 195.48l5.797-11.054" stroke-width="1.2" stroke="#f00" stroke-miterlimit="10" fill="none"/><path d="M162.91 184.426l5.797-11.055" stroke-width="1.2" stroke="#000" stroke-miterlimit="10" fill="none"/><path d="M153.113 189.98h8v11h-8zm0 0" fill="#fff"/><use xlink:href="#c" x="153.113" y="198.644" fill="#f00"/><path d="M168.707 173.37l-11.07-22.374M157.637 150.996l13.84-20.773M157.637 150.996l-24.914-1.598M155.52 144.973l-19.93-1.278M171.477 130.223l-11.07-22.375M165.105 130.59l-8.855-17.903M160.406 107.848l-24.914-1.602M135.492 106.246l-6.918 10.387" stroke-width="1.2" stroke="#000" stroke-miterlimit="10" fill="none"/><path d="M128.574 116.633l-6.922 10.39M120.012 86.664l7.742 9.79" stroke-width="1.2" stroke="#00f" stroke-miterlimit="10" fill="none"/><path d="M127.754 96.453l7.738 9.793" stroke-width="1.2" stroke="#000" stroke-miterlimit="10" fill="none"/><path d="M116.953 92.266l6.192 7.832" stroke-width="1.2" stroke="#00f" stroke-miterlimit="10" fill="none"/><path d="M123.145 100.098l6.195 7.832" stroke-width="1.2" stroke="#000" stroke-miterlimit="10" fill="none"/><path d="M121.652 127.023l5.535 11.188" stroke-width="1.2" stroke="#00f" stroke-miterlimit="10" fill="none"/><path d="M127.188 138.21l5.535 11.188" stroke-width="1.2" stroke="#000" stroke-miterlimit="10" fill="none"/><path d="M121.652 127.023l-12.02-3.375" stroke-width="1.2" stroke="#00f" stroke-miterlimit="10" fill="none"/><path d="M109.633 123.648l-12.016-3.37" stroke-width="1.2" stroke="#000" stroke-miterlimit="10" fill="none"/><path d="M118.652 121.523h7v11h-7zm0 0" fill="#fff"/><use xlink:href="#b" x="118.652" y="130.187" fill="#00f"/><path d="M97.617 120.277l-.508-12.472" stroke-width="1.2" stroke="#000" stroke-miterlimit="10" fill="none"/><path d="M97.11 107.805l-.505-12.47" stroke-width="1.2" stroke="#00f" stroke-miterlimit="10" fill="none"/><path d="M103.383 117.543l-.403-9.977" stroke-width="1.2" stroke="#000" stroke-miterlimit="10" fill="none"/><path d="M102.98 107.566l-.406-9.976" stroke-width="1.2" stroke="#00f" stroke-miterlimit="10" fill="none"/><path d="M97.617 120.277l-19.586 15.48" stroke-width="1.2" stroke="#000" stroke-miterlimit="10" fill="none"/><path d="M96.605 95.336l23.407-8.672" stroke-width="1.2" stroke="#00f" stroke-miterlimit="10" fill="none"/><path d="M93.605 89.836h7v11h-7zm0 0" fill="#fff"/><use xlink:href="#b" x="93.605" y="98.499" fill="#00f"/><path d="M117.012 81.164h7v11h-7zm0 0" fill="#fff"/><use xlink:href="#b" x="117.012" y="89.827" fill="#00f"/><path d="M78.03 135.758l-23.198-9.22M73.543 140.297l-18.56-7.38M81.648 160.46L78.03 135.76M54.832 126.54L35.25 142.02M35.25 142.02l3.613 24.703M41.422 143.64l2.894 19.758M38.863 166.723l23.2 9.218M62.063 175.94l19.585-15.48M60.38 169.785l15.667-12.387M81.648 160.46l11.598 4.61" stroke-width="1.2" stroke="#000" stroke-miterlimit="10" fill="none"/><path d="M93.246 165.07l11.602 4.61M104.848 169.68l1.808 12.35" stroke-width="1.2" stroke="#f00" stroke-miterlimit="10" fill="none"/><path d="M106.656 182.03l1.805 12.35" stroke-width="1.2" stroke="#000" stroke-miterlimit="10" fill="none"/><path d="M100.848 164.18h8v11h-8zm0 0" fill="#fff"/><use xlink:href="#c" x="100.848" y="172.843" fill="#f00"/><path d="M108.46 194.38l23.2 9.218" stroke-width="1.2" stroke="#000" stroke-miterlimit="10" fill="none"/></g></svg>
